X:1
T:Easter Carol
T:Easter Carol
T:Mary Holden Coggeshall Seward
T:Mary Artemisia Lathbury, 1883
T:Public Domain Courtesy of the Cyber Hymnal™
C:Mary Holden Coggeshall Seward
Z:Public Domain
Z:Courtesy of the Cyber Hymnal™
%%score ( 1 2 ) 3
L:1/8
Q:1/4=110
M:6/8
K:F
V:1 treble 
V:2 treble 
V:3 bass 
V:1
 C | [A,F]2 [G,E] [A,F]2 [CG] | [FA]3 [FA]2 [GB] | [Ac]2 [GB] [FA]2 [EG] | F3- F2 C | D2 C D2 E | %6
w: 1.~Lift|up, O lit- tle|child- ren, Your|voic- es clear and|sweet, * And|sing the bless- èd|
w: 2.~Lift|up, O ten- der|li- lies, Your|white- ness to the|sun; * The|earth is not our|
w: 3.~Ring,|all ye bells of|East- er, Your|chimes of joy a-|gain, * Ring|out the night of|
 F3 F2 [EG] | [FA]2 [EG] [FA]2 [GB] | [Ac]3 [Ac]2 [Ac] | [Gc]2 [Gc] [F=B]2 [FB] | %10
w: sto- ry Of|Christ, the Lord of|glo- ry, And|wor- ship at His|
w: pri- son, Since|Christ Him- self hath|ris- en, The|life of ev- ’ry|
w: sad- ness Ring|in the morn of|glad- ness, For|death no more shall|
 [Ec]3- [Ec]2 [Ec] | [Ge]2 [Fd] [Ec]2 [D=B] | [Ec]3- [Ec]2 ||"^Refrain" [Gc] | %14
w: feet, * And|wor- ship at His|feet. *||
w: one, * The|life of ev- ’ry|one. *||
w: reign, * For|death no more shall|reign. *||
 [Ac]2 [GB] [FA]2 [Bd] | [Ac]3 [FA]2 [CA] | [CA]2 [B,G] [A,F]2 [DB] | [CA]3 [A,F]2 C | D2 E F2 G | %19
w: |||||
w: |||||
w: |||||
 A3- A2 [Ac] | [Af]2 [Ac] [GB]2 [EG] | F3- F2 |] %22
w: |||
w: |||
w: |||
V:2
 C | x6 | x6 | x6 | F3- F2 C | D2 C D2 E | F3 F2 x | x6 | x6 | x6 | x6 | x6 | x5 || x | x6 | x6 | %16
 x6 | x5 C | D2 E F2 G | A3- A2 x | x6 | F3- F2 |] %22
V:3
 z | z6 | z6 | z6 | z3 z2 C, | D,2 C, D,2 E, | F,3 F,2 C, | F,2 C, F,2 F, | F,3 F,2 E, | %9
w: ||||~|~ ~ ~ ~|~ ~ ~|~ ~ ~ ~|~ ~ ~|
 E,2 E, D,2 D, | C,3- C,2 C, | C,2 F, G,2 G, | C,3- C,2 || E, | F,2 F, F,2 F, | F,3 F,2 F, | %16
w: ~ ~ ~ ~|~ * ~|~ ~ ~ ~|~ *|Oh,|sing the bless- èd|sto- ry! The|
 F,2 F, F,2 F, | F,3 F,2 C, | D,2 E, F,2 G, | A,3- A,2 F, | F,2 F, C,2 C, | F,3- F,2 |] %22
w: Lord of life and|glo- ry Is|ris- en, as He|said, * Is|ris- en from the|dead! *|

